X: 5
T: The Old Crossroads
R: barndance
M: 4/4
L: 1/8
K: Edor
|: B, | E>D EF G>F GA | B2 e2 dB-BA | G>F GB AF DE | F2 E2 DB,-B, B, |
E>D EF G>F GA | B2 e2 dB- BA | G>F GB AF DE | FG/F/ ED E3 :|
|: A | B2 e2 e2 de | f2 e2 dB z2 | A3 B d3 e | dB AB d2 BA |
B2 e2 e2 de | f2 e2 dB-BA | G>F GB AF DE | FG/F/ ED E3 :|